lib/images/icon_ai.svg

<svg width="100" height="62" viewBox="0 0 100 62" fill="none" xmlns="http://www.w3.org/2000/svg">
<path d="M26 1C40 1 50 6.2 50 17V27C50.7 29.9 52.1 32.7 54 35C54.9 35.9 55.2 37.5 53.1 38.1C51.2 38.6 50.6 38.5 50.4 39.8C50.2 41.1 51 42.6 49.8 43C48.6 43.4 49.7 44.7 48.5 45.7C47.7 46.4 49.5 50.9 45.1 50.9H40.4C38.1 50.9 38 52.6 38 54.9C38 57.2 40 60.9 40 60.9H12C12 60.9 16 56.8 16 52.9C16 46.9 4 37.4 4 20.9C4 5.2 16 1 26 1Z" fill="white"/>
<path d="M35.5 13.1999C31.7 8.3999 24.8 7.5999 20 11.3999C19.3 11.8999 18.8 12.4999 18.2 13.1999C13.9 13.8999 11 17.9999 11.8 22.3999C12.5 26.1999 15.8 28.9999 19.7 28.9999C20 28.9999 20.2 28.8999 20.4 28.8999C24.2 31.6999 29.4 31.6999 33.3 28.8999C33.4 28.8999 33.6 28.8999 33.7 28.8999C38.1 28.8999 41.7 25.2999 41.7 20.8999C41.7 17.1999 39.1 13.9999 35.5 13.1999Z" fill="#99DDC9"/>
<path opacity="0.25" d="M35.5 13.1999C31.7 8.3999 24.8 7.5999 20 11.3999C19.3 11.8999 18.8 12.4999 18.2 13.1999C16.1 13.5999 14.2 14.7999 13 16.4999C14 15.7999 15 15.3999 16.2 15.1999C20 10.4999 26.9 9.6999 31.6 13.4999C32.3 13.9999 32.8 14.5999 33.4 15.2999C37.7 16.2999 40.4 20.4999 39.4 24.7999C39.2 25.7999 38.8 26.7999 38.2 27.5999C41.8 25.0999 42.7 20.0999 40.2 16.4999C39.1 14.7999 37.4 13.5999 35.5 13.1999Z" fill="white"/>
<path opacity="0.14" d="M16 59C16 59 20 54.9 20 51C20 45 8 35.5 8 19C8 10.7 11.3 5.69995 15.8 2.69995C9.3 5.09995 4 10.5 4 21C4 37.5 16 47 16 53C16 56.9 12 61 12 61H40C40 61 39.5 60.0999 39.1 59H16Z" fill="#000064"/>
<path d="M27 15L21.7 23H31.7L26.7 30.4" stroke="#2E4369" stroke-width="2" stroke-linecap="round" stroke-linejoin="round"/>
<path d="M35.5 13.1999C31.7 8.3999 24.8 7.5999 20 11.3999C19.3 11.8999 18.8 12.4999 18.2 13.1999C13.9 13.8999 11 17.9999 11.8 22.3999C12.5 26.1999 15.8 28.9999 19.7 28.9999C20 28.9999 20.2 28.8999 20.4 28.8999C24.2 31.6999 29.4 31.6999 33.3 28.8999C33.4 28.8999 33.6 28.8999 33.7 28.8999C38.1 28.8999 41.7 25.2999 41.7 20.8999C41.7 17.1999 39.1 13.9999 35.5 13.1999Z" stroke="#2E4369" stroke-width="2" stroke-linecap="round" stroke-linejoin="round"/>
<path d="M60.3 41.3001L72.8001 36.7001C74.6001 37.1001 76.4 37.3001 78.2 37.3001C89.2 37.3001 98.1 30.2001 98.1 21.4001C98.1 12.6001 89.2 5.6001 78.2 5.6001C67.2 5.6001 58.3 12.7001 58.3 21.5001C58.3 25.9001 60.6 30.0001 64.3 32.9001L60.3 41.3001Z" fill="white"/>
<path opacity="0.14" d="M82.2 33.9999C71.2 33.9999 62.3 26.5999 62.3 17.3999C62.3 14.7999 63.1 12.1999 64.5 9.8999C60.7 12.6999 58.3 16.8999 58.3 21.3999C58.3 25.8999 60.6 29.8999 64.3 32.7999L60.3 41.2999L72.8001 36.6999C74.6001 37.0999 76.4 37.2999 78.2 37.2999C85 37.2999 91.1 34.4999 94.7 30.2999C91 32.7999 86.6 34.0999 82.2 33.9999Z" fill="#000064"/>
<path opacity="0.4" d="M85.5 18.1001C93.4 20.7001 93.3 17.6001 92.4 15.6001C91.9 14.7001 91.3 13.8001 90.5 13.0001C86.8 9.40011 82.7 9.60011 80.1 10.7001C77.5 11.8001 77.5 15.5001 85.5 18.1001Z" fill="white"/>
<path d="M70.2 22.7999C70.918 22.7999 71.5 22.2179 71.5 21.5C71.5 20.782 70.918 20.2 70.2 20.2C69.482 20.2 68.9 20.782 68.9 21.5C68.9 22.2179 69.482 22.7999 70.2 22.7999Z" fill="#2E4369"/>
<path d="M78.2 22.7999C78.918 22.7999 79.5 22.2179 79.5 21.5C79.5 20.782 78.918 20.2 78.2 20.2C77.482 20.2 76.9 20.782 76.9 21.5C76.9 22.2179 77.482 22.7999 78.2 22.7999Z" fill="#2E4369"/>
<path d="M86.1 22.7999C86.818 22.7999 87.4 22.2179 87.4 21.5C87.4 20.782 86.818 20.2 86.1 20.2C85.3821 20.2 84.8 20.782 84.8 21.5C84.8 22.2179 85.3821 22.7999 86.1 22.7999Z" fill="#2E4369"/>
<path d="M60.3 41.3001L72.8001 36.7001C74.6001 37.1001 76.4 37.3001 78.2 37.3001C89.2 37.3001 98.1 30.2001 98.1 21.4001C98.1 12.6001 89.2 5.6001 78.2 5.6001C67.2 5.6001 58.3 12.7001 58.3 21.5001C58.3 25.9001 60.6 30.0001 64.3 32.9001L60.3 41.3001Z" stroke="#2E4369" stroke-width="2" stroke-miterlimit="10" stroke-linecap="round" stroke-linejoin="round"/>
<path d="M70.2 22.7999C70.918 22.7999 71.5 22.2179 71.5 21.5C71.5 20.782 70.918 20.2 70.2 20.2C69.482 20.2 68.9 20.782 68.9 21.5C68.9 22.2179 69.482 22.7999 70.2 22.7999Z" stroke="#2E4369" stroke-width="2" stroke-miterlimit="10" stroke-linecap="round" stroke-linejoin="round"/>
<path d="M78.2 22.7999C78.918 22.7999 79.5 22.2179 79.5 21.5C79.5 20.782 78.918 20.2 78.2 20.2C77.482 20.2 76.9 20.782 76.9 21.5C76.9 22.2179 77.482 22.7999 78.2 22.7999Z" stroke="#2E4369" stroke-width="2" stroke-miterlimit="10" stroke-linecap="round" stroke-linejoin="round"/>
<path d="M86.1 22.7999C86.818 22.7999 87.4 22.2179 87.4 21.5C87.4 20.782 86.818 20.2 86.1 20.2C85.3821 20.2 84.8 20.782 84.8 21.5C84.8 22.2179 85.3821 22.7999 86.1 22.7999Z" stroke="#2E4369" stroke-width="2" stroke-miterlimit="10" stroke-linecap="round" stroke-linejoin="round"/>
<path d="M26 1C40 1 50 6.2 50 17V27C50.7 29.9 52.1 32.7 54 35C54.9 35.9 55.2 37.5 53.1 38.1C51.2 38.6 50.6 38.5 50.4 39.8C50.2 41.1 51 42.6 49.8 43C48.6 43.4 49.7 44.7 48.5 45.7C47.7 46.4 49.5 50.9 45.1 50.9H40.4C38.1 50.9 38 52.6 38 54.9C38 57.2 40 60.9 40 60.9H12C12 60.9 16 56.8 16 52.9C16 46.9 4 37.4 4 20.9C4 5.2 16 1 26 1Z" stroke="#2E4369" stroke-width="2" stroke-linecap="round" stroke-linejoin="round"/>
</svg>

<svg width="100" height="62" fill="none" xmlns="http://www.w3.org/2000/svg"><path d="M26 1c14 0 24 5.2 24 16v10c.7 2.9 2.1 5.7 4 8 .9.9 1.2 2.5-.9 3.1-1.9.5-2.5.4-2.7 1.7-.2 1.3.6 2.8-.6 3.2-1.2.4-.1 1.7-1.3 2.7-.8.7 1 5.2-3.4 5.2h-4.7c-2.3 0-2.4 1.7-2.4 4s2 6 2 6H12s4-4.1 4-8c0-6-12-15.5-12-32C4 5.2 16 1 26 1z" fill="#fff"/><path d="M35.5 13.2C31.7 8.4 24.8 7.6 20 11.4c-.7.5-1.2 1.1-1.8 1.8-4.3.7-7.2 4.8-6.4 9.2.7 3.8 4 6.6 7.9 6.6.3 0 .5-.1.7-.1 3.8 2.8 9 2.8 12.9 0h.4c4.4 0 8-3.6 8-8 0-3.7-2.6-6.9-6.2-7.7z" fill="#99DDC9"/><path opacity=".25" d="M35.5 13.2C31.7 8.4 24.8 7.6 20 11.4c-.7.5-1.2 1.1-1.8 1.8-2.1.4-4 1.6-5.2 3.3 1-.7 2-1.1 3.2-1.3 3.8-4.7 10.7-5.5 15.4-1.7.7.5 1.2 1.1 1.8 1.8 4.3 1 7 5.2 6 9.5-.2 1-.6 2-1.2 2.8 3.6-2.5 4.5-7.5 2-11.1-1.1-1.7-2.8-2.9-4.7-3.3z" fill="#fff"/><path opacity=".14" d="M16 59s4-4.1 4-8c0-6-12-15.5-12-32 0-8.3 3.3-13.3 7.8-16.3C9.3 5.1 4 10.5 4 21c0 16.5 12 26 12 32 0 3.9-4 8-4 8h28s-.5-.9-.9-2H16z" fill="#000064"/><path d="M27 15l-5.3 8h10l-5 7.4" stroke="#2E4369" stroke-width="2" stroke-linecap="round" stroke-linejoin="round"/><path d="M35.5 13.2C31.7 8.4 24.8 7.6 20 11.4c-.7.5-1.2 1.1-1.8 1.8-4.3.7-7.2 4.8-6.4 9.2.7 3.8 4 6.6 7.9 6.6.3 0 .5-.1.7-.1 3.8 2.8 9 2.8 12.9 0h.4c4.4 0 8-3.6 8-8 0-3.7-2.6-6.9-6.2-7.7z" stroke="#2E4369" stroke-width="2" stroke-linecap="round" stroke-linejoin="round"/><path d="M60.3 41.3l12.5-4.6c1.8.4 3.6.6 5.4.6 11 0 19.9-7.1 19.9-15.9S89.2 5.6 78.2 5.6c-11 0-19.9 7.1-19.9 15.9 0 4.4 2.3 8.5 6 11.4l-4 8.4z" fill="#fff"/><path opacity=".14" d="M82.2 34c-11 0-19.9-7.4-19.9-16.6 0-2.6.8-5.2 2.2-7.5-3.8 2.8-6.2 7-6.2 11.5s2.3 8.5 6 11.4l-4 8.5 12.5-4.6c1.8.4 3.6.6 5.4.6 6.8 0 12.9-2.8 16.5-7-3.7 2.5-8.1 3.8-12.5 3.7z" fill="#000064"/><path opacity=".4" d="M85.5 18.1c7.9 2.6 7.8-.5 6.9-2.5-.5-.9-1.1-1.8-1.9-2.6-3.7-3.6-7.8-3.4-10.4-2.3-2.6 1.1-2.6 4.8 5.4 7.4z" fill="#fff"/><path d="M70.2 22.8a1.3 1.3 0 100-2.6 1.3 1.3 0 000 2.6zm8 0a1.3 1.3 0 100-2.6 1.3 1.3 0 000 2.6zm7.9 0a1.3 1.3 0 100-2.6 1.3 1.3 0 000 2.6z" fill="#2E4369"/><path d="M60.3 41.3l12.5-4.6c1.8.4 3.6.6 5.4.6 11 0 19.9-7.1 19.9-15.9S89.2 5.6 78.2 5.6c-11 0-19.9 7.1-19.9 15.9 0 4.4 2.3 8.5 6 11.4l-4 8.4z" stroke="#2E4369" stroke-width="2" stroke-miterlimit="10" stroke-linecap="round" stroke-linejoin="round"/><path d="M70.2 22.8a1.3 1.3 0 100-2.6 1.3 1.3 0 000 2.6zm8 0a1.3 1.3 0 100-2.6 1.3 1.3 0 000 2.6zm7.9 0a1.3 1.3 0 100-2.6 1.3 1.3 0 000 2.6z" stroke="#2E4369" stroke-width="2" stroke-miterlimit="10" stroke-linecap="round" stroke-linejoin="round"/><path d="M26 1c14 0 24 5.2 24 16v10c.7 2.9 2.1 5.7 4 8 .9.9 1.2 2.5-.9 3.1-1.9.5-2.5.4-2.7 1.7-.2 1.3.6 2.8-.6 3.2-1.2.4-.1 1.7-1.3 2.7-.8.7 1 5.2-3.4 5.2h-4.7c-2.3 0-2.4 1.7-2.4 4s2 6 2 6H12s4-4.1 4-8c0-6-12-15.5-12-32C4 5.2 16 1 26 1z" stroke="#2E4369" stroke-width="2" stroke-linecap="round" stroke-linejoin="round"/></svg>
